img/logos/google.svg

<svg width="270" height="90" xmlns="http://www.w3.org/2000/svg"><g fill="#7C7C7C" fill-rule="nonzero"><path d="M115.75 47.18c0 12.77-9.99 22.18-22.25 22.18s-22.25-9.41-22.25-22.18C71.25 34.32 81.24 25 93.5 25s22.25 9.32 22.25 22.18zm-9.74 0c0-7.98-5.79-13.44-12.51-13.44S80.99 39.2 80.99 47.18c0 7.9 5.79 13.44 12.51 13.44s12.51-5.55 12.51-13.44zM163.75 47.18c0 12.77-9.99 22.18-22.25 22.18s-22.25-9.41-22.25-22.18c0-12.85 9.99-22.18 22.25-22.18s22.25 9.32 22.25 22.18zm-9.74 0c0-7.98-5.79-13.44-12.51-13.44s-12.51 5.46-12.51 13.44c0 7.9 5.79 13.44 12.51 13.44s12.51-5.55 12.51-13.44zM209.75 26.34v39.82c0 16.38-9.66 23.07-21.08 23.07-10.75 0-17.22-7.19-19.66-13.07l8.48-3.53c1.51 3.61 5.21 7.87 11.17 7.87 7.31 0 11.84-4.51 11.84-13v-3.19h-.34c-2.18 2.69-6.38 5.04-11.68 5.04-11.09 0-21.25-9.66-21.25-22.09 0-12.52 10.16-22.26 21.25-22.26 5.29 0 9.49 2.35 11.68 4.96h.34v-3.61h9.25v-.01zm-8.56 20.92c0-7.81-5.21-13.52-11.84-13.52-6.72 0-12.35 5.71-12.35 13.52 0 7.73 5.63 13.36 12.35 13.36 6.63 0 11.84-5.63 11.84-13.36zM225 3v65h-9.5V3zM262.02 54.48l7.56 5.04c-2.44 3.61-8.32 9.83-18.48 9.83-12.6 0-22.01-9.74-22.01-22.18 0-13.19 9.49-22.18 20.92-22.18 11.51 0 17.14 9.16 18.98 14.11l1.01 2.52-29.65 12.28c2.27 4.45 5.8 6.72 10.75 6.72 4.96 0 8.4-2.44 10.92-6.14zm-23.27-7.98 19.82-8.23c-1.09-2.77-4.37-4.7-8.23-4.7-4.95 0-11.84 4.37-11.59 12.93zM35.29 41.41V32H67c.31 1.64.47 3.58.47 5.68 0 7.06-1.93 15.79-8.15 22.01-6.05 6.3-13.78 9.66-24.02 9.66C16.32 69.35.36 53.89.36 34.91S16.32.47 35.3.47c10.5 0 17.98 4.12 23.6 9.49l-6.64 6.64c-4.03-3.78-9.49-6.72-16.97-6.72-13.86 0-24.7 11.17-24.7 25.03s10.84 25.03 24.7 25.03c8.99 0 14.11-3.61 17.39-6.89 2.66-2.66 4.41-6.46 5.1-11.65l-22.49.01z"/></g></svg>

<?xml version="1.0" encoding="UTF-8" standalone="no"?>
<svg width="270px" height="90px" viewBox="0 0 270 90" version="1.1" xmlns="http://www.w3.org/2000/svg" xmlns:xlink="http://www.w3.org/1999/xlink">
    <!-- Generator: Sketch 46.2 (44496) - http://www.bohemiancoding.com/sketch -->
    <title>Google_2015_logo</title>
    <desc>Created with Sketch.</desc>
    <defs></defs>
    <g id="Page-1" stroke="none" stroke-width="1" fill="none" fill-rule="evenodd">
        <g id="Google_2015_logo" fill-rule="nonzero" fill="#7C7C7C">
            <path d="M115.75,47.18 C115.75,59.95 105.76,69.36 93.5,69.36 C81.24,69.36 71.25,59.95 71.25,47.18 C71.25,34.32 81.24,25 93.5,25 C105.76,25 115.75,34.32 115.75,47.18 Z M106.01,47.18 C106.01,39.2 100.22,33.74 93.5,33.74 C86.78,33.74 80.99,39.2 80.99,47.18 C80.99,55.08 86.78,60.62 93.5,60.62 C100.22,60.62 106.01,55.07 106.01,47.18 Z" id="Shape"></path>
            <path d="M163.75,47.18 C163.75,59.95 153.76,69.36 141.5,69.36 C129.24,69.36 119.25,59.95 119.25,47.18 C119.25,34.33 129.24,25 141.5,25 C153.76,25 163.75,34.32 163.75,47.18 Z M154.01,47.18 C154.01,39.2 148.22,33.74 141.5,33.74 C134.78,33.74 128.99,39.2 128.99,47.18 C128.99,55.08 134.78,60.62 141.5,60.62 C148.22,60.62 154.01,55.07 154.01,47.18 Z" id="Shape"></path>
            <path d="M209.75,26.34 L209.75,66.16 C209.75,82.54 200.09,89.23 188.67,89.23 C177.92,89.23 171.45,82.04 169.01,76.16 L177.49,72.63 C179,76.24 182.7,80.5 188.66,80.5 C195.97,80.5 200.5,75.99 200.5,67.5 L200.5,64.31 L200.16,64.31 C197.98,67 193.78,69.35 188.48,69.35 C177.39,69.35 167.23,59.69 167.23,47.26 C167.23,34.74 177.39,25 188.48,25 C193.77,25 197.97,27.35 200.16,29.96 L200.5,29.96 L200.5,26.35 L209.75,26.35 L209.75,26.34 Z M201.19,47.26 C201.19,39.45 195.98,33.74 189.35,33.74 C182.63,33.74 177,39.45 177,47.26 C177,54.99 182.63,60.62 189.35,60.62 C195.98,60.62 201.19,54.99 201.19,47.26 Z" id="Shape"></path>
            <polygon id="Shape" points="225 3 225 68 215.5 68 215.5 3"></polygon>
            <path d="M262.02,54.48 L269.58,59.52 C267.14,63.13 261.26,69.35 251.1,69.35 C238.5,69.35 229.09,59.61 229.09,47.17 C229.09,33.98 238.58,24.99 250.01,24.99 C261.52,24.99 267.15,34.15 268.99,39.1 L270,41.62 L240.35,53.9 C242.62,58.35 246.15,60.62 251.1,60.62 C256.06,60.62 259.5,58.18 262.02,54.48 Z M238.75,46.5 L258.57,38.27 C257.48,35.5 254.2,33.57 250.34,33.57 C245.39,33.57 238.5,37.94 238.75,46.5 L238.75,46.5 Z" id="Shape"></path>
            <path d="M35.29,41.41 L35.29,32 L67,32 C67.31,33.64 67.47,35.58 67.47,37.68 C67.47,44.74 65.54,53.47 59.32,59.69 C53.27,65.99 45.54,69.35 35.3,69.35 C16.32,69.35 0.36,53.89 0.36,34.91 C0.36,15.93 16.32,0.47 35.3,0.47 C45.8,0.47 53.28,4.59 58.9,9.96 L52.26,16.6 C48.23,12.82 42.77,9.88 35.29,9.88 C21.43,9.88 10.59,21.05 10.59,34.91 C10.59,48.77 21.43,59.94 35.29,59.94 C44.28,59.94 49.4,56.33 52.68,53.05 C55.34,50.39 57.09,46.59 57.78,41.4 L35.29,41.41 Z" id="Shape"></path>
        </g>
    </g>
</svg>
